Newaita-dark/apps/64/com.github.artemanufrij.graphui.svg

<svg height="64pt" viewBox="0 0 64 64" width="64pt" xmlns="http://www.w3.org/2000/svg" xmlns:xlink="http://www.w3.org/1999/xlink"><linearGradient id="a" gradientUnits="userSpaceOnUse" x1="31.753043" x2="31.753043" y1="56.067871" y2="58.71395875004"><stop offset="0" stop-opacity=".27451"/><stop offset="1" stop-opacity="0"/></linearGradient><linearGradient id="b"><stop offset="0" stop-opacity=".313725"/><stop offset=".222222" stop-opacity=".27451"/><stop offset="1" stop-opacity="0"/></linearGradient><radialGradient id="c" cx="450.90894" cy="189.57936" gradientTransform="matrix(.00000035 -.156265 -.281277 -.0000002 104.261296 127.190669)" gradientUnits="userSpaceOnUse" r="21.166656" xlink:href="#b"/><radialGradient id="d" cx="450.90894" cy="189.57936" gradientTransform="matrix(-.00000035 .156265 .281277 .0000002 -40.755228 -15.054957)" gradientUnits="userSpaceOnUse" r="21.166656" xlink:href="#b"/><radialGradient id="e" cx="450.90894" cy="189.57936" gradientTransform="matrix(-.00000035 -.156265 .281277 -.0000002 -40.755228 127.190669)" gradientUnits="userSpaceOnUse" r="21.166656" xlink:href="#b"/><radialGradient id="f" cx="450.90894" cy="189.57936" gradientTransform="matrix(.00000035 .156265 -.281277 .0000002 104.261292 -15.054959)" gradientUnits="userSpaceOnUse" r="21.166656" xlink:href="#b"/><linearGradient id="g" gradientUnits="userSpaceOnUse" x1="21.16869824996" x2="21.16869824996" y1="56.067868" y2="5.79220950008"><stop offset="0" stop-color="#8d6e63"/><stop offset="1" stop-color="#a1887f"/></linearGradient><linearGradient id="h"><stop offset="0" stop-color="#bdbdbd"/><stop offset="1" stop-color="#e0e0e0"/></linearGradient><linearGradient id="i" gradientUnits="userSpaceOnUse" x1="960" x2="960.00006" xlink:href="#h" y1="1695.1182" y2="175.11812"/><linearGradient id="j" gradientUnits="userSpaceOnUse" x1="31.75305401543" x2="31.753056" xlink:href="#h" y1="56.06789909502" y2="5.79222477969"/><path d="m11.90625 55.871094h39.691406v2.941406h-39.691406zm0 0" fill="url(#a)"/><path d="m51.597656 56.066406h5.292969v-2.644531h-5.292969zm0 0" fill="url(#c)"/><path d="m11.90625 56.066406h-5.292969v2.648438h5.292969zm0 0" fill="url(#d)"/><path d="m11.90625 56.066406h-5.292969v-2.644531h5.292969zm0 0" fill="url(#e)"/><path d="m51.597656 56.066406h5.292969v2.648438h-5.292969zm0 0" fill="url(#f)"/><path d="m9.261719 5.792969h44.984375c1.460937 0 2.644531 1.183593 2.644531 2.644531v44.984375c0 1.460937-1.183594 2.644531-2.644531 2.644531h-44.984375c-1.460938 0-2.648438-1.183594-2.648438-2.644531v-44.984375c0-1.460938 1.1875-2.644531 2.648438-2.644531zm0 0" fill="url(#g)"/><path d="m9.261719 5.792969c-1.464844 0-2.648438 1.179687-2.648438 2.644531v.332031c0-1.464843 1.183594-2.648437 2.648438-2.648437h44.984375c1.464844 0 2.644531 1.183594 2.644531 2.648437v-.332031c0-1.464844-1.179687-2.644531-2.644531-2.644531zm0 0" fill="#e6e6e6" fill-opacity=".392157"/><path d="m9.261719 56.066406c-1.464844 0-2.648438-1.179687-2.648438-2.644531v-.332031c0 1.46875 1.183594 2.648437 2.648438 2.648437h44.984375c1.464844 0 2.644531-1.179687 2.644531-2.648437v.332031c0 1.464844-1.179687 2.644531-2.644531 2.644531zm0 0" fill-opacity=".196078"/><path d="m74.086675-168.660675h359.840637c11.686384 0 21.15423 9.467846 21.15423 21.15423v359.840637c0 11.686384-9.467846 21.154229-21.15423 21.154229h-359.840637c-11.686384 0-21.185477-9.467845-21.185477-21.154229v-359.840637c0-11.686384 9.499093-21.15423 21.185477-21.15423zm0 0" fill="none" stroke="#212121" stroke-linecap="round" stroke-width="3" transform="matrix(.125012 0 0 .125012 0 26.877566)"/><path d="m958.727356 492.472662c-88.101824 5.196355-156.953518 27.517058-209.035159 67.434507-52.19974 39.917448-86.566538 96.48685-108.769142 165.810939-44.405209 138.53008-43.578516 329.377999-43.578516 569.355085h45.35c0-2.361979 0-4.723958 0-7.204036l32.004818 18.541537 139.947268-242.575264-34.602995-19.958724-137.349091 237.851305c0-233.599743 1.535287-418.070318 41.452735-542.192325 20.194922-63.182943 49.601563-110.304428 93.061981-143.608335 43.460417-33.185807 102.273699-53.38073 184.116278-58.222787zm5.314453 0-2.716276 45.231902c81.960678 4.842057 140.655861 25.03698 184.116278 58.222787 43.460418 33.303907 72.867059 80.425392 93.18008 143.608335 40.035547 124.9487 41.334636 311.072661 41.334636 546.798184l-139.947268-242.457164-34.602995 19.958724 139.947267 242.575264 34.602996-20.076824v8.739323h45.35c0-239.977086.944792-430.825005-43.578516-569.355085-22.202605-69.324089-56.569402-125.893491-108.769142-165.810939-52.081641-39.917449-120.815236-62.238152-208.91706-67.434507zm-24.092188 182.699091v179.982815h40.035548v-179.982815zm0 0" fill="url(#i)" stroke="#212121" stroke-linecap="round" stroke-linejoin="round" stroke-width="11.338583" transform="scale(.0330761)"/><path d="m31.753906 11.085938c-3.300781 0-5.953125 2.652343-5.953125 5.953124 0 3.296876 2.652344 5.953126 5.953125 5.953126 3.296875 0 5.953125-2.65625 5.953125-5.953126 0-3.300781-2.65625-5.953124-5.953125-5.953124zm-5.292968 15.875c-1.464844 0-2.644532 1.179687-2.644532 2.644531v3.96875c0 1.46875 1.179688 2.648437 2.644532 2.648437h10.585937c1.464844 0 2.644531-1.179687 2.644531-2.648437v-3.96875c0-1.464844-1.179687-2.644531-2.644531-2.644531zm-10.585938 14.554687c-1.464844 0-2.644531 1.179687-2.644531 2.644531v3.96875c0 1.464844 1.179687 2.648438 2.644531 2.648438h10.585938c1.464843 0 2.644531-1.183594 2.644531-2.648438v-3.96875c0-1.464844-1.179688-2.644531-2.644531-2.644531zm21.171875 0c-1.46875 0-2.648437 1.179687-2.648437 2.644531v3.96875c0 1.464844 1.179687 2.648438 2.648437 2.648438h10.582031c1.464844 0 2.648438-1.183594 2.648438-2.648438v-3.96875c0-1.464844-1.183594-2.644531-2.648438-2.644531zm0 0" fill="url(#j)"/><path d="m31.753906 11.085938c-3.300781 0-5.953125 2.652343-5.953125 5.953124 0 .167969.003907.332032.019531.496094.25-3.066406 2.800782-5.457031 5.933594-5.457031 3.128906 0 5.683594 2.390625 5.933594 5.457031.011719-.164062.019531-.328125.019531-.496094 0-3.300781-2.65625-5.953124-5.953125-5.953124zm-5.292968 15.875c-1.464844 0-2.644532 1.179687-2.644532 2.644531v.992187c0-1.464844 1.179688-2.644531 2.644532-2.644531h10.585937c1.464844 0 2.644531 1.179687 2.644531 2.644531v-.992187c0-1.464844-1.179687-2.644531-2.644531-2.644531zm-10.585938 14.554687c-1.464844 0-2.644531 1.179687-2.644531 2.644531v.992188c0-1.464844 1.179687-2.644532 2.644531-2.644532h10.585938c1.464843 0 2.644531 1.179688 2.644531 2.644532v-.992188c0-1.464844-1.179688-2.644531-2.644531-2.644531zm21.171875 0c-1.46875 0-2.648437 1.179687-2.648437 2.644531v.992188c0-1.464844 1.179687-2.644532 2.648437-2.644532h10.582031c1.464844 0 2.648438 1.179688 2.648438 2.644532v-.992188c0-1.464844-1.183594-2.644531-2.648438-2.644531zm0 0" fill="#fff" fill-opacity=".392157"/><path d="m25.835938 17.699219c-.023438.21875-.035157.4375-.035157.660156 0 3.300781 2.652344 5.957031 5.953125 5.957031 3.296875 0 5.953125-2.65625 5.953125-5.957031 0-.222656-.011719-.441406-.035156-.660156-.328125 2.984375-2.84375 5.292969-5.917969 5.292969-3.074218 0-5.589844-2.308594-5.917968-5.292969zm-2.019532 15.875v1.324219c0 1.464843 1.179688 2.648437 2.644532 2.648437h10.585937c1.464844 0 2.644531-1.183594 2.644531-2.648437v-1.324219c0 1.46875-1.179687 2.648437-2.644531 2.648437h-10.585937c-1.464844 0-2.644532-1.179687-2.644532-2.648437zm-10.585937 14.554687v1.324219c0 1.464844 1.179687 2.644531 2.644531 2.644531h10.585938c1.464843 0 2.644531-1.179687 2.644531-2.644531v-1.324219c0 1.464844-1.179688 2.648438-2.644531 2.648438h-10.585938c-1.464844 0-2.644531-1.183594-2.644531-2.648438zm21.167969 0v1.324219c0 1.464844 1.179687 2.644531 2.648437 2.644531h10.582031c1.464844 0 2.648438-1.179687 2.648438-2.644531v-1.324219c0 1.464844-1.183594 2.648438-2.648438 2.648438h-10.582031c-1.46875 0-2.648437-1.183594-2.648437-2.648438zm0 0" fill-opacity=".235294"/><path d="m960.026444 335.164848c-99.793621 0-179.982814 80.189194-179.982814 179.982815 0 99.675522 80.189193 179.982815 179.982814 179.982815 99.675522 0 179.982815-80.307293 179.982815-179.982815 0-99.793621-80.307293-179.982815-179.982815-179.982815zm-160.02409 479.954173c-44.28711 0-79.952996 35.665886-79.952996 79.952995v119.988544c0 44.405209 35.665886 80.071094 79.952996 80.071094h320.048181c44.28711 0 79.952996-35.665885 79.952996-80.071094v-119.988544c0-44.287109-35.665886-79.952995-79.952996-79.952995zm-320.048181 440.036724c-44.28711 0-79.952996 35.665886-79.952996 79.952996v119.988543c0 44.28711 35.665886 80.071095 79.952996 80.071095h320.048181c44.28711 0 79.952996-35.783985 79.952996-80.071095v-119.988543c0-44.28711-35.665886-79.952996-79.952996-79.952996zm640.096362 0c-44.405209 0-80.071095 35.665886-80.071095 79.952996v119.988543c0 44.28711 35.665886 80.071095 80.071095 80.071095h319.930082c44.28711 0 80.071095-35.783985 80.071095-80.071095v-119.988543c0-44.28711-35.783985-79.952996-80.071095-79.952996zm0 0" fill="none" stroke="#212121" stroke-linecap="round" stroke-linejoin="round" stroke-width="11.338583" transform="scale(.0330761)"/></svg>

<?xml version="1.0" encoding="UTF-8"?>
<svg xmlns="http://www.w3.org/2000/svg" xmlns:xlink="http://www.w3.org/1999/xlink" width="64pt" height="64pt" viewBox="0 0 64 64" version="1.1">
<defs>
<linearGradient id="linear0" gradientUnits="userSpaceOnUse" x1="254" y1="233.5" x2="254" y2="254.66667" gradientTransform="matrix(0.125012,0,0,0.125012,-0.00000500048,26.877569)">
<stop offset="0" style="stop-color:rgb(0%,0%,0%);stop-opacity:0.27451;"/>
<stop offset="1" style="stop-color:rgb(0%,0%,0%);stop-opacity:0;"/>
</linearGradient>
<radialGradient id="radial0" gradientUnits="userSpaceOnUse" cx="450.90894" cy="189.57936" fx="450.90894" fy="189.57936" r="21.166656" gradientTransform="matrix(0.000000348341,-0.156265,-0.281277,-0.000000203077,104.261296,127.190669)">
<stop offset="0" style="stop-color:rgb(0%,0%,0%);stop-opacity:0.313725;"/>
<stop offset="0.222222" style="stop-color:rgb(0%,0%,0%);stop-opacity:0.27451;"/>
<stop offset="1" style="stop-color:rgb(0%,0%,0%);stop-opacity:0;"/>
</radialGradient>
<radialGradient id="radial1" gradientUnits="userSpaceOnUse" cx="450.90894" cy="189.57936" fx="450.90894" fy="189.57936" r="21.166656" gradientTransform="matrix(-0.000000348341,0.156265,0.281277,0.000000203077,-40.755228,-15.054957)">
<stop offset="0" style="stop-color:rgb(0%,0%,0%);stop-opacity:0.313725;"/>
<stop offset="0.222222" style="stop-color:rgb(0%,0%,0%);stop-opacity:0.27451;"/>
<stop offset="1" style="stop-color:rgb(0%,0%,0%);stop-opacity:0;"/>
</radialGradient>
<radialGradient id="radial2" gradientUnits="userSpaceOnUse" cx="450.90894" cy="189.57936" fx="450.90894" fy="189.57936" r="21.166656" gradientTransform="matrix(-0.000000348341,-0.156265,0.281277,-0.000000203077,-40.755228,127.190669)">
<stop offset="0" style="stop-color:rgb(0%,0%,0%);stop-opacity:0.313725;"/>
<stop offset="0.222222" style="stop-color:rgb(0%,0%,0%);stop-opacity:0.27451;"/>
<stop offset="1" style="stop-color:rgb(0%,0%,0%);stop-opacity:0;"/>
</radialGradient>
<radialGradient id="radial3" gradientUnits="userSpaceOnUse" cx="450.90894" cy="189.57936" fx="450.90894" fy="189.57936" r="21.166656" gradientTransform="matrix(0.000000348341,0.156265,-0.281277,0.000000203077,104.261292,-15.054959)">
<stop offset="0" style="stop-color:rgb(0%,0%,0%);stop-opacity:0.313725;"/>
<stop offset="0.222222" style="stop-color:rgb(0%,0%,0%);stop-opacity:0.27451;"/>
<stop offset="1" style="stop-color:rgb(0%,0%,0%);stop-opacity:0;"/>
</radialGradient>
<linearGradient id="linear1" gradientUnits="userSpaceOnUse" x1="169.33333" y1="233.5" x2="169.33333" y2="-168.66666" gradientTransform="matrix(0.125012,0,0,0.125012,0,26.877566)">
<stop offset="0" style="stop-color:rgb(55.294118%,43.137255%,38.823529%);stop-opacity:1;"/>
<stop offset="1" style="stop-color:rgb(63.137255%,53.333333%,49.803922%);stop-opacity:1;"/>
</linearGradient>
<linearGradient id="linear2" gradientUnits="userSpaceOnUse" x1="960" y1="1695.1182" x2="960.00006" y2="175.11812" >
<stop offset="0" style="stop-color:rgb(74.117647%,74.117647%,74.117647%);stop-opacity:1;"/>
<stop offset="1" style="stop-color:rgb(87.843137%,87.843137%,87.843137%);stop-opacity:1;"/>
</linearGradient>
<linearGradient id="linear3" gradientUnits="userSpaceOnUse" x1="959.99994" y1="1695.1182" x2="960" y2="175.11813" gradientTransform="matrix(0.0330761,0,0,0.0330761,0,0)">
<stop offset="0" style="stop-color:rgb(74.117647%,74.117647%,74.117647%);stop-opacity:1;"/>
<stop offset="1" style="stop-color:rgb(87.843137%,87.843137%,87.843137%);stop-opacity:1;"/>
</linearGradient>
</defs>
<g id="surface1">
<path style=" stroke:none;fill-rule:nonzero;fill:url(#linear0);" d="M 11.90625 55.871094 L 51.597656 55.871094 L 51.597656 58.8125 L 11.90625 58.8125 Z M 11.90625 55.871094 "/>
<path style=" stroke:none;fill-rule:nonzero;fill:url(#radial0);" d="M 51.597656 56.066406 L 56.890625 56.066406 L 56.890625 53.421875 L 51.597656 53.421875 Z M 51.597656 56.066406 "/>
<path style=" stroke:none;fill-rule:nonzero;fill:url(#radial1);" d="M 11.90625 56.066406 L 6.613281 56.066406 L 6.613281 58.714844 L 11.90625 58.714844 Z M 11.90625 56.066406 "/>
<path style=" stroke:none;fill-rule:nonzero;fill:url(#radial2);" d="M 11.90625 56.066406 L 6.613281 56.066406 L 6.613281 53.421875 L 11.90625 53.421875 Z M 11.90625 56.066406 "/>
<path style=" stroke:none;fill-rule:nonzero;fill:url(#radial3);" d="M 51.597656 56.066406 L 56.890625 56.066406 L 56.890625 58.714844 L 51.597656 58.714844 Z M 51.597656 56.066406 "/>
<path style=" stroke:none;fill-rule:nonzero;fill:url(#linear1);" d="M 9.261719 5.792969 L 54.246094 5.792969 C 55.707031 5.792969 56.890625 6.976562 56.890625 8.4375 L 56.890625 53.421875 C 56.890625 54.882812 55.707031 56.066406 54.246094 56.066406 L 9.261719 56.066406 C 7.800781 56.066406 6.613281 54.882812 6.613281 53.421875 L 6.613281 8.4375 C 6.613281 6.976562 7.800781 5.792969 9.261719 5.792969 Z M 9.261719 5.792969 "/>
<path style=" stroke:none;fill-rule:nonzero;fill:rgb(90.196078%,90.196078%,90.196078%);fill-opacity:0.392157;" d="M 9.261719 5.792969 C 7.796875 5.792969 6.613281 6.972656 6.613281 8.4375 L 6.613281 8.769531 C 6.613281 7.304688 7.796875 6.121094 9.261719 6.121094 L 54.246094 6.121094 C 55.710938 6.121094 56.890625 7.304688 56.890625 8.769531 L 56.890625 8.4375 C 56.890625 6.972656 55.710938 5.792969 54.246094 5.792969 Z M 9.261719 5.792969 "/>
<path style=" stroke:none;fill-rule:nonzero;fill:rgb(0%,0%,0%);fill-opacity:0.196078;" d="M 9.261719 56.066406 C 7.796875 56.066406 6.613281 54.886719 6.613281 53.421875 L 6.613281 53.089844 C 6.613281 54.558594 7.796875 55.738281 9.261719 55.738281 L 54.246094 55.738281 C 55.710938 55.738281 56.890625 54.558594 56.890625 53.089844 L 56.890625 53.421875 C 56.890625 54.886719 55.710938 56.066406 54.246094 56.066406 Z M 9.261719 56.066406 "/>
<path style="fill:none;stroke-width:3;stroke-linecap:round;stroke-linejoin:miter;stroke:rgb(12.941176%,12.941176%,12.941176%);stroke-opacity:1;stroke-miterlimit:4;" d="M 74.086675 -168.660675 L 433.927312 -168.660675 C 445.613696 -168.660675 455.081542 -159.192829 455.081542 -147.506445 L 455.081542 212.334192 C 455.081542 224.020576 445.613696 233.488421 433.927312 233.488421 L 74.086675 233.488421 C 62.400291 233.488421 52.901198 224.020576 52.901198 212.334192 L 52.901198 -147.506445 C 52.901198 -159.192829 62.400291 -168.660675 74.086675 -168.660675 Z M 74.086675 -168.660675 " transform="matrix(0.125012,0,0,0.125012,0,26.877566)"/>
<path style="fill-rule:nonzero;fill:url(#linear2);stroke-width:11.338583;stroke-linecap:round;stroke-linejoin:round;stroke:rgb(12.941176%,12.941176%,12.941176%);stroke-opacity:1;stroke-miterlimit:4;" d="M 958.727356 492.472662 C 870.625532 497.669017 801.773838 519.98972 749.692197 559.907169 C 697.492457 599.824617 663.125659 656.394019 640.923055 725.718108 C 596.517846 864.248188 597.344539 1055.096107 597.344539 1295.073193 L 642.694539 1295.073193 C 642.694539 1292.711214 642.694539 1290.349235 642.694539 1287.869157 L 674.699357 1306.410694 L 814.646625 1063.83543 L 780.04363 1043.876706 L 642.694539 1281.728011 C 642.694539 1048.128268 644.229826 863.657693 684.147274 739.535686 C 704.342196 676.352743 733.748837 629.231258 777.209255 595.927351 C 820.669672 562.741544 879.482954 542.546621 961.325533 537.704564 Z M 964.041809 492.472662 L 961.325533 537.704564 C 1043.286211 542.546621 1101.981394 562.741544 1145.441811 595.927351 C 1188.902229 629.231258 1218.30887 676.352743 1238.621891 739.535686 C 1278.657438 864.484386 1279.956527 1050.608347 1279.956527 1286.33387 L 1140.009259 1043.876706 L 1105.406264 1063.83543 L 1245.353531 1306.410694 L 1279.956527 1286.33387 C 1279.956527 1289.286344 1279.956527 1292.120719 1279.956527 1295.073193 L 1325.306527 1295.073193 C 1325.306527 1055.096107 1326.251319 864.248188 1281.728011 725.718108 C 1259.525406 656.394019 1225.158609 599.824617 1172.958869 559.907169 C 1120.877228 519.98972 1052.143633 497.669017 964.041809 492.472662 Z M 939.949621 675.171753 L 939.949621 855.154568 L 979.985169 855.154568 L 979.985169 675.171753 Z M 939.949621 675.171753 " transform="matrix(0.0330761,0,0,0.0330761,0,0)"/>
<path style=" stroke:none;fill-rule:nonzero;fill:url(#linear3);" d="M 31.753906 11.085938 C 28.453125 11.085938 25.800781 13.738281 25.800781 17.039062 C 25.800781 20.335938 28.453125 22.992188 31.753906 22.992188 C 35.050781 22.992188 37.707031 20.335938 37.707031 17.039062 C 37.707031 13.738281 35.050781 11.085938 31.753906 11.085938 Z M 26.460938 26.960938 C 24.996094 26.960938 23.816406 28.140625 23.816406 29.605469 L 23.816406 33.574219 C 23.816406 35.042969 24.996094 36.222656 26.460938 36.222656 L 37.046875 36.222656 C 38.511719 36.222656 39.691406 35.042969 39.691406 33.574219 L 39.691406 29.605469 C 39.691406 28.140625 38.511719 26.960938 37.046875 26.960938 Z M 15.875 41.515625 C 14.410156 41.515625 13.230469 42.695312 13.230469 44.160156 L 13.230469 48.128906 C 13.230469 49.59375 14.410156 50.777344 15.875 50.777344 L 26.460938 50.777344 C 27.925781 50.777344 29.105469 49.59375 29.105469 48.128906 L 29.105469 44.160156 C 29.105469 42.695312 27.925781 41.515625 26.460938 41.515625 Z M 37.046875 41.515625 C 35.578125 41.515625 34.398438 42.695312 34.398438 44.160156 L 34.398438 48.128906 C 34.398438 49.59375 35.578125 50.777344 37.046875 50.777344 L 47.628906 50.777344 C 49.09375 50.777344 50.277344 49.59375 50.277344 48.128906 L 50.277344 44.160156 C 50.277344 42.695312 49.09375 41.515625 47.628906 41.515625 Z M 37.046875 41.515625 "/>
<path style=" stroke:none;fill-rule:nonzero;fill:rgb(100%,100%,100%);fill-opacity:0.392157;" d="M 31.753906 11.085938 C 28.453125 11.085938 25.800781 13.738281 25.800781 17.039062 C 25.800781 17.207031 25.804688 17.371094 25.820312 17.535156 C 26.070312 14.46875 28.621094 12.078125 31.753906 12.078125 C 34.882812 12.078125 37.4375 14.46875 37.6875 17.535156 C 37.699219 17.371094 37.707031 17.207031 37.707031 17.039062 C 37.707031 13.738281 35.050781 11.085938 31.753906 11.085938 Z M 26.460938 26.960938 C 24.996094 26.960938 23.816406 28.140625 23.816406 29.605469 L 23.816406 30.597656 C 23.816406 29.132812 24.996094 27.953125 26.460938 27.953125 L 37.046875 27.953125 C 38.511719 27.953125 39.691406 29.132812 39.691406 30.597656 L 39.691406 29.605469 C 39.691406 28.140625 38.511719 26.960938 37.046875 26.960938 Z M 15.875 41.515625 C 14.410156 41.515625 13.230469 42.695312 13.230469 44.160156 L 13.230469 45.152344 C 13.230469 43.6875 14.410156 42.507812 15.875 42.507812 L 26.460938 42.507812 C 27.925781 42.507812 29.105469 43.6875 29.105469 45.152344 L 29.105469 44.160156 C 29.105469 42.695312 27.925781 41.515625 26.460938 41.515625 Z M 37.046875 41.515625 C 35.578125 41.515625 34.398438 42.695312 34.398438 44.160156 L 34.398438 45.152344 C 34.398438 43.6875 35.578125 42.507812 37.046875 42.507812 L 47.628906 42.507812 C 49.09375 42.507812 50.277344 43.6875 50.277344 45.152344 L 50.277344 44.160156 C 50.277344 42.695312 49.09375 41.515625 47.628906 41.515625 Z M 37.046875 41.515625 "/>
<path style=" stroke:none;fill-rule:nonzero;fill:rgb(0%,0%,0%);fill-opacity:0.235294;" d="M 25.835938 17.699219 C 25.8125 17.917969 25.800781 18.136719 25.800781 18.359375 C 25.800781 21.660156 28.453125 24.316406 31.753906 24.316406 C 35.050781 24.316406 37.707031 21.660156 37.707031 18.359375 C 37.707031 18.136719 37.695312 17.917969 37.671875 17.699219 C 37.34375 20.683594 34.828125 22.992188 31.753906 22.992188 C 28.679688 22.992188 26.164062 20.683594 25.835938 17.699219 Z M 23.816406 33.574219 L 23.816406 34.898438 C 23.816406 36.363281 24.996094 37.546875 26.460938 37.546875 L 37.046875 37.546875 C 38.511719 37.546875 39.691406 36.363281 39.691406 34.898438 L 39.691406 33.574219 C 39.691406 35.042969 38.511719 36.222656 37.046875 36.222656 L 26.460938 36.222656 C 24.996094 36.222656 23.816406 35.042969 23.816406 33.574219 Z M 13.230469 48.128906 L 13.230469 49.453125 C 13.230469 50.917969 14.410156 52.097656 15.875 52.097656 L 26.460938 52.097656 C 27.925781 52.097656 29.105469 50.917969 29.105469 49.453125 L 29.105469 48.128906 C 29.105469 49.59375 27.925781 50.777344 26.460938 50.777344 L 15.875 50.777344 C 14.410156 50.777344 13.230469 49.59375 13.230469 48.128906 Z M 34.398438 48.128906 L 34.398438 49.453125 C 34.398438 50.917969 35.578125 52.097656 37.046875 52.097656 L 47.628906 52.097656 C 49.09375 52.097656 50.277344 50.917969 50.277344 49.453125 L 50.277344 48.128906 C 50.277344 49.59375 49.09375 50.777344 47.628906 50.777344 L 37.046875 50.777344 C 35.578125 50.777344 34.398438 49.59375 34.398438 48.128906 Z M 34.398438 48.128906 "/>
<path style="fill:none;stroke-width:11.338583;stroke-linecap:round;stroke-linejoin:round;stroke:rgb(12.941176%,12.941176%,12.941176%);stroke-opacity:1;stroke-miterlimit:4;" d="M 960.026444 335.164848 C 860.232823 335.164848 780.04363 415.354042 780.04363 515.147663 C 780.04363 614.823185 860.232823 695.130478 960.026444 695.130478 C 1059.701966 695.130478 1140.009259 614.823185 1140.009259 515.147663 C 1140.009259 415.354042 1059.701966 335.164848 960.026444 335.164848 Z M 800.002354 815.119021 C 755.715244 815.119021 720.049358 850.784907 720.049358 895.072016 L 720.049358 1015.06056 C 720.049358 1059.465769 755.715244 1095.131654 800.002354 1095.131654 L 1120.050535 1095.131654 C 1164.337645 1095.131654 1200.003531 1059.465769 1200.003531 1015.06056 L 1200.003531 895.072016 C 1200.003531 850.784907 1164.337645 815.119021 1120.050535 815.119021 Z M 479.954173 1255.155745 C 435.667063 1255.155745 400.001177 1290.821631 400.001177 1335.108741 L 400.001177 1455.097284 C 400.001177 1499.384394 435.667063 1535.168379 479.954173 1535.168379 L 800.002354 1535.168379 C 844.289464 1535.168379 879.95535 1499.384394 879.95535 1455.097284 L 879.95535 1335.108741 C 879.95535 1290.821631 844.289464 1255.155745 800.002354 1255.155745 Z M 1120.050535 1255.155745 C 1075.645326 1255.155745 1039.97944 1290.821631 1039.97944 1335.108741 L 1039.97944 1455.097284 C 1039.97944 1499.384394 1075.645326 1535.168379 1120.050535 1535.168379 L 1439.980617 1535.168379 C 1484.267727 1535.168379 1520.051712 1499.384394 1520.051712 1455.097284 L 1520.051712 1335.108741 C 1520.051712 1290.821631 1484.267727 1255.155745 1439.980617 1255.155745 Z M 1120.050535 1255.155745 " transform="matrix(0.0330761,0,0,0.0330761,0,0)"/>
</g>
</svg>
